X: 3063
T: LANG SYNE
Q:"Strathspey."
R: Strathspey.
%R:strathspey
B: James Kerr "Merry Melodies" v.3 p.9 #63
Z: 2016 John Chambers <jc:trillian.mit.edu>
M: C
L: 1/8
K: G
uD |\
vG<uG vG>uB vA>vGuA>uB | G<G B>d e2 (e/f/g) |\
d<B B>G A>GA>B | G<E E>D G3 ::\
e |\
d<B B>G A>GA>B | d<B B>d e2 (e/f/g) |\
d<B B>G A>GA>B | G<E E>D G3 :|

%%sep 1 1 500
%%sep 1 1 500

